X:62
T: Flatwater Fran
C: Phil Cunningham
R: mazurka
M: 3/4
L: 1/8
K: Gmaj
     DE  | "G"  G2 G2 DE |      G2 G2 B/c/d | "C"  e2 d2 G2       | "G"  B4   |
     DE  | "G"  G2 G2 DE | "Am" A2 A2 GA    | "Em" B2 AG ED       | "C"  E4   |
   D/E/F | "G"  G2 G2 DE |      G2 G2 B/c/d | "C"  e2 d2 g2       | "G"   B4  |
   dB    | "Am" A2 AG AB | "Em" AG E2 GE    | "C"  DE G2 "D7" G2  | "G"  G4  :|
|: B/c/d | "C"  e2 d2 G2 | "G"  B4 B/c/d    | "C"  e2 d2 G2       | "G"   B4  |
   B/c/d | "C"  e2 d2 g2 | "Em" B2 dB AG    | "Am" A2 AG AB       | "D"  A4   |
   B/c/d | "C"  e2 d2 g2 | "G"  B2 dB AG    | "D7" A2 "Bm" d3 c   | "Em"  B3 B |
     AG  | "Am" EA AG AB | "Em" AG E2 GE    | "C"  DE G2 "D7"  G2 | "G"  G4  :|

